!!!OTL: Jetzt fahr'n mer uebern See, vidrom, jetzt fahr'n mer uebern See.
!!!ARE: Europa, Mitteleuropa, Deutschland, Untermainfranken, Spessart
!!!SCT: D0174
!!!YEM: Copyright 1995, estate of Helmut Schaffrath.
**kern
*ICvox
*Ivox
*M2/4
*k[b-]
*F:
{8c
=1
8a
8a
8a
8b-
=2
8cc
8cc
8cc
8a
=3
8b-
8b-
8b-
8cc
=4
4a
8r}
{8c
=5
8a
8a
8a
8b-
=6
8cc
8cc
8cc
8a
=7
8b-
8b-
8b-
8cc
=8
4r
8r}
{8cc
=9
8dd
8cc
8b-
8a
=10
4b-
4g
=11
8b-
8b-
8dd
8dd
=12
8cc
4a}
{8cc
=13
8dd
8cc
8b-
8a
=14
4b-
8g
8cc
=15
8cc
8cc
8cc
8b-
=16
4.a}
==
!!!AGN: Bauern - Lied
!! Grundton ??; Inzipit = entfernte Variante zum Lied
!!!ONB: ESAC (Essen Associative Code) Database: DVA
!!!AMT: simple duple
!!!AIN: vox
!!!EED: Helmut Schaffrath
!!!EEV: 1.0
*-
